SVG_Azure_All/Query Explorer.svg

<?xml version="1.0" encoding="UTF-8" standalone="no"?>
<!-- Generated by Microsoft Visio, SVG Export Query Explorer.svg Page-1 -->

<svg
   xmlns:dc="http://purl.org/dc/elements/1.1/"
   xmlns:cc="http://creativecommons.org/ns#"
   xmlns:rdf="http://www.w3.org/1999/02/22-rdf-syntax-ns#"
   xmlns:svg="http://www.w3.org/2000/svg"
   xmlns="http://www.w3.org/2000/svg"
   xmlns:sodipodi="http://sodipodi.sourceforge.net/DTD/sodipodi-0.dtd"
   xmlns:inkscape="http://www.inkscape.org/namespaces/inkscape"
   width="0.6207512in"
   height="0.78323978in"
   viewBox="0 0 44.694064 56.393404"
   xml:space="preserve"
   class="st3"
   version="1.1"
   id="svg32"
   sodipodi:docname="Query Explorer.svg"
   style="font-size:12px;overflow:visible;color-interpolation-filters:sRGB;fill:none;fill-rule:evenodd;stroke-linecap:square;stroke-miterlimit:3"
   inkscape:version="0.92.5 (2060ec1f9f, 2020-04-08)"><metadata
   id="metadata38"><rdf:RDF><cc:Work
       rdf:about=""><dc:format>image/svg+xml</dc:format><dc:type
         rdf:resource="http://purl.org/dc/dcmitype/StillImage" /></cc:Work></rdf:RDF></metadata><defs
   id="defs36" /><sodipodi:namedview
   pagecolor="#ffffff"
   bordercolor="#666666"
   borderopacity="1"
   objecttolerance="10"
   gridtolerance="10"
   guidetolerance="10"
   inkscape:pageopacity="0"
   inkscape:pageshadow="2"
   inkscape:window-width="640"
   inkscape:window-height="480"
   id="namedview34"
   showgrid="false"
   inkscape:zoom="1.8365233"
   inkscape:cx="29.796472"
   inkscape:cy="18.499957"
   inkscape:window-x="0"
   inkscape:window-y="0"
   inkscape:window-maximized="0"
   inkscape:current-layer="svg32" />
	<style
   type="text/css"
   id="style2">
	<![CDATA[
		.st1 {fill:#0072c6;stroke:none;stroke-linecap:butt;stroke-width:5.32174}
		.st2 {fill:#a0a1a2;stroke:none;stroke-linecap:butt;stroke-width:5.32174}
		.st3 {fill:none;fill-rule:evenodd;font-size:12px;overflow:visible;stroke-linecap:square;stroke-miterlimit:3}
	]]>
	</style>

	<g
   id="g30"
   transform="translate(-5.3213234,-5.6706)">
		<title
   id="title4">Page-1</title>
		<g
   id="group2108-1"
   transform="translate(4.66124,-34.0157)">
			<title
   id="title6">Query Explorer</title>
			<g
   id="group2109-2">
				<title
   id="title8">Sheet.2109</title>
				<g
   id="group2110-3"
   transform="translate(14.3842,-14.2837)">
					<title
   id="title10">Sheet.2110</title>
					<g
   id="shape2111-4">
						<title
   id="title12">Sheet.2111</title>
						<path
   d="M 30.97,64.33 V 96.38 H 0 V 53.97 h 20.65 v 6.77 c 0,3.83 -0.35,3.49 3.47,3.49 h 6.46 c 0.1,0 0.15,0.05 0.39,0.1 z M 15.41,80.82 h 9.84 c 0.78,0 1.61,-0.05 1.56,-1.03 0,-1.03 -0.83,-1.03 -1.61,-1.03 H 5.68 c -0.79,0 -1.62,0.05 -1.57,1.03 0,0.98 0.83,1.03 1.61,1.03 z m 0.05,6.23 H 5.63 c -0.74,0 -1.47,0.05 -1.52,0.98 -0.05,0.99 0.73,1.13 1.52,1.13 h 19.66 c 0.74,0 1.47,-0.1 1.52,-0.98 0.05,-0.98 -0.73,-1.13 -1.52,-1.13 -3.27,0.05 -6.55,0 -9.83,0 z m -2.2,-14.53 h 7.88 c 0.73,0 1.46,-0.1 1.51,-0.98 0.05,-0.98 -0.73,-1.08 -1.51,-1.08 H 5.63 c -0.74,0 -1.47,0.05 -1.52,0.98 -0.05,0.98 0.73,1.13 1.52,1.08 z"
   class="st1"
   id="path14"
   inkscape:connector-curvature="0"
   style="fill:#0072c6;stroke:none;stroke-width:5.32174015;stroke-linecap:butt" />
					</g>
					<g
   id="shape2112-6"
   transform="translate(22.7995,-34.2612)">
						<title
   id="title17">Sheet.2112</title>
						<path
   d="M 6.65,96.38 H 0 V 89.7 c 2.15,2.11 4.45,4.42 6.65,6.68 z"
   class="st1"
   id="path19"
   inkscape:connector-curvature="0"
   style="fill:#0072c6;stroke:none;stroke-width:5.32174015;stroke-linecap:butt" />
					</g>
				</g>
				<g
   id="shape2113-8">
					<title
   id="title23">Sheet.2113</title>
					<path
   d="m 10.47,82.68 c -4.6,-7.65 -1.61,-15.11 3.28,-18.65 5.38,-3.93 12.77,-3.34 17.46,1.38 4.8,4.81 5.29,12.32 1.23,17.76 -3.43,4.57 -10.86,7.71 -18.3,3.15 -0.83,0.78 -1.66,1.52 -2.45,2.35 C 9.59,90.83 7.53,93.04 5.43,95.2 4.31,96.33 3.77,96.38 2.64,95.3 0,92.79 0,92.7 2.64,90.19 c 2.6,-2.5 5.19,-4.95 7.83,-7.51 z m 11.16,2.46 c 5.62,0 10.12,-4.52 10.12,-10.16 0,-5.65 -4.5,-10.21 -10.08,-10.21 -5.67,0 -10.22,4.51 -10.17,10.26 0,5.64 4.5,10.16 10.13,10.11 z"
   class="st2"
   id="path25"
   inkscape:connector-curvature="0"
   style="fill:#a0a1a2;stroke:none;stroke-width:5.32174015;stroke-linecap:butt" />
				</g>
			</g>
		</g>
	</g>
</svg>

<?xml version="1.0" encoding="UTF-8" standalone="no"?>
<!DOCTYPE svg PUBLIC "-//W3C//DTD SVG 1.1//EN" "http://www.w3.org/Graphics/SVG/1.1/DTD/svg11.dtd">
<!-- Generated by Microsoft Visio, SVG Export Query Explorer.svg Page-1 -->
<svg xmlns="http://www.w3.org/2000/svg" xmlns:xlink="http://www.w3.org/1999/xlink" xmlns:ev="http://www.w3.org/2001/xml-events"
		width="0.768574in" height="1.33858in" viewBox="0 0 55.3373 96.378" xml:space="preserve" color-interpolation-filters="sRGB"
		class="st3">
	<style type="text/css">
	<![CDATA[
		.st1 {fill:#0072c6;stroke:none;stroke-linecap:butt;stroke-width:5.32174}
		.st2 {fill:#a0a1a2;stroke:none;stroke-linecap:butt;stroke-width:5.32174}
		.st3 {fill:none;fill-rule:evenodd;font-size:12px;overflow:visible;stroke-linecap:square;stroke-miterlimit:3}
	]]>
	</style>

	<g>
		<title>Page-1</title>
		<g id="group2093-1" transform="translate(4.66124,-34.0157)">
			<title>Query Explorer</title>
			<g id="group2094-2">
				<title>Sheet.2094</title>
				<g id="group2095-3" transform="translate(14.3842,-14.2837)">
					<title>Sheet.2095</title>
					<g id="shape2096-4">
						<title>Sheet.2096</title>
						<path d="M30.97 64.33 L30.97 96.38 L0 96.38 L0 53.97 L20.65 53.97 L20.65 60.74 C20.65 64.57 20.3 64.23 24.12
									 64.23 L30.58 64.23 C30.68 64.23 30.73 64.28 30.97 64.33 ZM15.41 80.82 L25.25 80.82 C26.03 80.82
									 26.86 80.77 26.81 79.79 C26.81 78.76 25.98 78.76 25.2 78.76 L5.68 78.76 C4.89 78.76 4.06 78.81
									 4.11 79.79 C4.11 80.77 4.94 80.82 5.72 80.82 L15.41 80.82 ZM15.46 87.05 L5.63 87.05 C4.89 87.05
									 4.16 87.1 4.11 88.03 C4.06 89.02 4.84 89.16 5.63 89.16 L25.29 89.16 C26.03 89.16 26.76 89.06
									 26.81 88.18 C26.86 87.2 26.08 87.05 25.29 87.05 C22.02 87.1 18.74 87.05 15.46 87.05 ZM13.26
									 72.52 L21.14 72.52 C21.87 72.52 22.6 72.42 22.65 71.54 C22.7 70.56 21.92 70.46 21.14 70.46 L5.63
									 70.46 C4.89 70.46 4.16 70.51 4.11 71.44 C4.06 72.42 4.84 72.57 5.63 72.52 L13.26 72.52 Z"
								class="st1"/>
					</g>
					<g id="shape2097-6" transform="translate(22.7995,-34.2612)">
						<title>Sheet.2097</title>
						<path d="M6.65 96.38 L0 96.38 L0 89.7 C2.15 91.81 4.45 94.12 6.65 96.38 Z" class="st1"/>
					</g>
				</g>
				<g id="shape2098-8">
					<title>Sheet.2098</title>
					<path d="M10.47 82.68 C5.87 75.03 8.86 67.57 13.75 64.03 C19.13 60.1 26.52 60.69 31.21 65.41 C36.01 70.22 36.5
								 77.73 32.44 83.17 C29.01 87.74 21.58 90.88 14.14 86.32 C13.31 87.1 12.48 87.84 11.69 88.67 C9.59
								 90.83 7.53 93.04 5.43 95.2 C4.31 96.33 3.77 96.38 2.64 95.3 C0 92.79 0 92.7 2.64 90.19 C5.24 87.69
								 7.83 85.24 10.47 82.68 ZM21.63 85.14 C27.25 85.14 31.75 80.62 31.75 74.98 C31.75 69.33 27.25 64.77
								 21.67 64.77 C16 64.77 11.45 69.28 11.5 75.03 C11.5 80.67 16 85.19 21.63 85.14 Z" class="st2"/>
				</g>
			</g>
		</g>
	</g>
</svg>
